assets/Snail/Flat/snail_flat.svg

<svg width="32" height="32" viewBox="0 0 32 32" fill="none" xmlns="http://www.w3.org/2000/svg">
<path d="M2.5 3.75C2.5 2.79 3.29 2 4.25 2C5.21 2 6 2.79 6 3.75C6 4.45 5.59 5.05 5 5.33V8.85H3.5V5.33C2.91 5.05 2.5 4.45 2.5 3.75Z" fill="#D3883E"/>
<path d="M6 3.75C6 4.45 6.41 5.05 7 5.33V8.85H8.5V5.33C9.09 5.05 9.5 4.45 9.5 3.75C9.5 2.79 8.71 2 7.75 2C6.79 2 6 2.79 6 3.75Z" fill="#D3883E"/>
<path d="M5 3.75C5 4.16421 4.66421 4.5 4.25 4.5C3.83579 4.5 3.5 4.16421 3.5 3.75C3.5 3.33579 3.83579 3 4.25 3C4.66421 3 5 3.33579 5 3.75Z" fill="#212121"/>
<path d="M8.5 3.75C8.5 4.16421 8.16421 4.5 7.75 4.5C7.33579 4.5 7 4.16421 7 3.75C7 3.33579 7.33579 3 7.75 3C8.16421 3 8.5 3.33579 8.5 3.75Z" fill="#212121"/>
<path d="M18 5C13.24 5 9.12999 7.77 7.18999 11.78V21H6.67999C8.32999 25.66 12.77 29 18 29C24.63 29 30 23.63 30 17C30 10.37 24.63 5 18 5Z" fill="#6D4534"/>
<path d="M11.9606 23.3497C10.7738 22.5405 9.97 21.0444 9.97 19.59V10.92C9.97 8.71998 8.19 6.93998 5.99 6.93998C3.78 6.92998 2 8.71998 2 10.92V23.68C2 27.13 4.8 29.92 8.24 29.92L28.44 30C29.3 30 30 29.3 30 28.44V28.02C30 26.0891 28.6288 24.474 26.8059 24.1078C25.2686 26.4519 22.6176 28 19.605 28C16.2784 28 13.3927 26.1123 11.9606 23.3497Z" fill="#F3AD61"/>
<path d="M29 19.28C29 24.5322 24.7422 28.79 19.49 28.79C14.2378 28.79 9.98001 24.5322 9.98001 19.28C9.98001 14.0278 14.2378 9.77002 19.49 9.77002C24.7422 9.77002 29 14.0278 29 19.28ZM26.22 21.78C26.22 19.1567 24.0934 17.03 21.47 17.03C18.8466 17.03 16.72 19.1567 16.72 21.78C16.72 24.4034 18.8466 26.53 21.47 26.53C24.0934 26.53 26.22 24.4034 26.22 21.78Z" fill="#A56953"/>
</svg>

<svg xmlns="http://www.w3.org/2000/svg" width="32" height="32" fill="none"><path fill="#D3883E" d="M2.5 3.75C2.5 2.79 3.29 2 4.25 2S6 2.79 6 3.75c0 .7-.41 1.3-1 1.58v3.52H3.5V5.33c-.59-.28-1-.88-1-1.58ZM6 3.75c0 .7.41 1.3 1 1.58v3.52h1.5V5.33c.59-.28 1-.88 1-1.58C9.5 2.79 8.71 2 7.75 2S6 2.79 6 3.75Z"/><path fill="#212121" d="M5 3.75a.75.75 0 1 1-1.5 0 .75.75 0 0 1 1.5 0ZM8.5 3.75a.75.75 0 1 1-1.5 0 .75.75 0 0 1 1.5 0Z"/><path fill="#6D4534" d="M18 5c-4.76 0-8.87 2.77-10.81 6.78V21h-.51c1.65 4.66 6.09 8 11.32 8 6.63 0 12-5.37 12-12S24.63 5 18 5Z"/><path fill="#F3AD61" d="M11.96 23.35c-1.186-.81-1.99-2.306-1.99-3.76v-8.67c0-2.2-1.78-3.98-3.98-3.98A3.973 3.973 0 0 0 2 10.92v12.76c0 3.45 2.8 6.24 6.24 6.24l20.2.08c.86 0 1.56-.7 1.56-1.56v-.42a3.99 3.99 0 0 0-3.194-3.912A8.598 8.598 0 0 1 19.605 28a8.604 8.604 0 0 1-7.644-4.65Z"/><path fill="#A56953" d="M29 19.28a9.51 9.51 0 1 1-19.02 0 9.51 9.51 0 0 1 19.02 0Zm-2.78 2.5a4.75 4.75 0 1 0-9.5 0 4.75 4.75 0 0 0 9.5 0Z"/></svg>
